;FLAVOR:Marlin
;TIME:2826
;Filament used: 1.63796m
;Layer height: 0.2
;MINX:93.7
;MINY:106.3
;MINZ:0.2
;MAXX:141.3
;MAXY:128.7
;MAXZ:20
;TARGET_MACHINE.NAME:Creality Ender-3
;Generated with Cura_SteamEngine 5.11.0
M140 S55
M105
M190 S55
M104 S200
M105
M109 S200
; Ender 3 Custom Start G-code
G92 E0 ; Reset Extruder
G28 ; Home all axes
G1 Z2.0 F3000 ; Move Z Axis up little to prevent scratching of Heat Bed
G1 X0.1 Y20 Z0.3 F5000.0 ; Move to start position
G1 X0.1 Y200.0 Z0.3 F1500.0 E15 ; Draw the first line
G1 X0.4 Y200.0 Z0.3 F5000.0 ; Move to side a little
G1 X0.4 Y20 Z0.3 F1500.0 E30 ; Draw the second line
G92 E0 ; Reset Extruder
G1 Z2.0 F3000 ; Move Z Axis up little to prevent scratching of Heat Bed
G1 X5 Y20 Z0.3 F5000.0 ; Move over to prevent blob squish
M82 ;absolute extrusion mode
G92 E0
G92 E0
G1 F2700 E-5
;LAYER_COUNT:100
;LAYER:0
M107
G0 F9000 X95.2 Y107.078 Z0.2
;TYPE:SKIRT
G1 F2700 E0
G1 F1800 X96.191 Y106.487 E0.03838
G1 X97.171 Y106.325 E0.07141
G1 X137.89 Y106.3 E1.42573
G1 X138.822 Y106.529 E1.45765
G1 X139.819 Y107.045 E1.49499
G1 X140.522 Y107.8 E1.5293
G1 X141.113 Y108.791 E1.56768
G1 X141.275 Y109.771 E1.60072
G1 X141.3 Y125.29 E2.11688
G1 X141.071 Y126.222 E2.1488
G1 X140.555 Y127.219 E2.18614
G1 X139.8 Y127.922 E2.22045
G1 X138.809 Y128.513 E2.25883
G1 X137.829 Y128.675 E2.29187
G1 X97.11 Y128.7 E3.64619
G1 X96.178 Y128.471 E3.67811
G1 X95.181 Y127.955 E3.71545
G1 X94.478 Y127.2 E3.74976
G1 X93.887 Y126.209 E3.78814
G1 X93.725 Y125.229 E3.82117
G1 X93.7 Y109.71 E4.33734
G1 X93.929 Y108.778 E4.36926
G1 X94.445 Y107.781 E4.4066
G1 X95.2 Y107.078 E4.44091
G0 F9000 X95.439 Y107.402
G1 F1800 X96.331 Y106.87 E4.47545
G1 X97.236 Y106.72 E4.50596
G1 X137.844 Y106.7 E5.85659
G1 X138.679 Y106.905 E5.88519
G1 X139.574 Y107.368 E5.9187
G1 X140.198 Y108.039 E5.94918
G1 X140.73 Y108.931 E5.98372
G1 X140.88 Y109.836 E6.01423
G1 X140.9 Y125.244 E6.52671
G1 X140.695 Y126.079 E6.5553
G1 X140.232 Y126.974 E6.58882
G1 X139.561 Y127.598 E6.6193
G1 X138.669 Y128.13 E6.65384
G1 X137.764 Y128.28 E6.68435
G1 X97.156 Y128.3 E8.03498
G1 X96.321 Y128.095 E8.06358
G1 X95.426 Y127.632 E8.09709
G1 X94.802 Y126.961 E8.12757
G1 X94.27 Y126.069 E8.16211
G1 X94.12 Y125.164 E8.19262
G1 X94.1 Y109.756 E8.70509
G1 X94.305 Y108.921 E8.73369
G1 X94.768 Y108.026 E8.76721
G1 X95.439 Y107.402 E8.79768
G0 F9000 X95.678 Y107.726
G1 F1800 X96.471 Y107.253 E8.82839
G1 X97.302 Y107.115 E8.85641
G1 X137.798 Y107.1 E10.20331
G1 X138.536 Y107.281 E10.22859
G1 X139.329 Y107.691 E10.25828
G1 X139.874 Y108.278 E10.28492
G1 X140.347 Y109.071 E10.31563
G1 X140.485 Y109.902 E10.34365
G1 X140.5 Y125.198 E10.8524
G1 X140.319 Y125.936 E10.87767
G1 X139.909 Y126.729 E10.90736
G1 X139.322 Y127.274 E10.934
G1 X138.529 Y127.747 E10.96471
G1 X137.698 Y127.885 E10.99273
G1 X97.202 Y127.9 E12.33963
G1 X96.464 Y127.719 E12.36491
G1 X95.671 Y127.309 E12.3946
G1 X95.126 Y126.722 E12.42124
G1 X94.653 Y125.929 E12.45195
G1 X94.515 Y125.098 E12.47997
G1 X94.5 Y109.802 E12.98872
G1 X94.681 Y109.064 E13.01399
G1 X95.091 Y108.271 E13.04368
G1 X95.678 Y107.726 E13.07032
G0 F9000 X95.917 Y108.05
G1 F1800 X96.611 Y107.636 E13.0972
G1 X97.368 Y107.51 E13.12273
G1 X137.748 Y107.5 E14.46577
G1 X138.397 Y107.659 E14.48799
G1 X139.084 Y108.014 E14.51371
G1 X139.55 Y108.517 E14.53652
G1 X139.964 Y109.211 E14.5634
G1 X140.09 Y109.968 E14.58892
G1 X140.1 Y125.148 E15.09381
G1 X139.941 Y125.797 E15.11604
G1 X139.586 Y126.484 E15.14176
G1 X139.083 Y126.95 E15.16456
G1 X138.389 Y127.364 E15.19144
G1 X137.632 Y127.49 E15.21696
G1 X97.252 Y127.5 E16.56001
G1 X96.603 Y127.341 E16.58223
G1 X95.916 Y126.986 E16.60795
G1 X95.45 Y126.483 E16.63076
G1 X95.036 Y125.789 E16.65764
G1 X94.91 Y125.032 E16.68316
G1 X94.9 Y109.852 E17.18805
G1 X95.059 Y109.203 E17.21027
G1 X95.414 Y108.516 E17.23599
G1 X95.917 Y108.05 E17.2588
G0 F9000 X96.156 Y108.374
G1 F1800 X96.751 Y108.019 E17.28184
G1 X97.434 Y107.905 E17.30487
G1 X137.698 Y107.9 E18.64406
G1 X138.258 Y108.037 E18.66324
G1 X138.838 Y108.337 E18.68495
G1 X139.226 Y108.756 E18.70395
G1 X139.581 Y109.351 E18.72699
G1 X139.695 Y110.034 E18.75002
G1 X139.7 Y125.098 E19.25105
G1 X139.563 Y125.658 E19.27023
G1 X139.263 Y126.238 E19.29195
G1 X138.844 Y126.626 E19.31094
G1 X138.249 Y126.981 E19.33399
G1 X137.566 Y127.095 E19.35702
G1 X97.302 Y127.1 E20.6962
G1 X96.742 Y126.963 E20.71538
G1 X96.162 Y126.663 E20.7371
G1 X95.774 Y126.244 E20.75609
G1 X95.419 Y125.649 E20.77913
G1 X95.305 Y124.966 E20.80216
G1 X95.3 Y109.902 E21.3032
G1 X95.437 Y109.342 E21.32237
G1 X95.737 Y108.762 E21.34409
G1 X96.156 Y108.374 E21.36308
G0 F9000 X96.398 Y108.695
G1 F1800 X96.889 Y108.402 E21.3821
G1 X97.5 Y108.3 E21.4027
G1 X137.648 Y108.3 E22.73803
G1 X138.119 Y108.415 E22.75416
G1 X138.592 Y108.66 E22.77187
G1 X138.905 Y108.998 E22.7872
G1 X139.198 Y109.489 E22.80621
G1 X139.3 Y110.1 E22.82682
G1 X139.3 Y125.048 E23.32399
G1 X139.185 Y125.519 E23.34011
G1 X138.94 Y125.992 E23.35783
G1 X138.602 Y126.305 E23.37315
G1 X138.111 Y126.598 E23.39217
G1 X137.5 Y126.7 E23.41277
G1 X97.352 Y126.7 E24.7481
G1 X96.881 Y126.585 E24.76423
G1 X96.408 Y126.34 E24.78194
G1 X96.095 Y126.002 E24.79727
G1 X95.802 Y125.511 E24.81628
G1 X95.7 Y124.9 E24.83689
G1 X95.7 Y109.952 E25.33406
G1 X95.815 Y109.481 E25.35019
G1 X96.06 Y109.008 E25.3679
G1 X96.398 Y108.695 E25.38322
G0 F9000 X96.64 Y109.016
G1 F1800 X97.027 Y108.785 E25.39821
G1 X97.5 Y108.7 E25.4142
G1 X137.598 Y108.7 E26.74786
G1 X137.98 Y108.793 E26.76094
G1 X138.346 Y108.983 E26.77466
G1 X138.584 Y109.24 E26.78631
G1 X138.815 Y109.627 E26.8013
G1 X138.9 Y110.1 E26.81728
G1 X138.9 Y124.998 E27.31279
G1 X138.807 Y125.38 E27.32587
G1 X138.617 Y125.746 E27.33958
G1 X138.36 Y125.984 E27.35123
G1 X137.973 Y126.215 E27.36622
G1 X137.5 Y126.3 E27.38221
G1 X97.402 Y126.3 E28.71587
G1 X97.02 Y126.207 E28.72895
G1 X96.654 Y126.017 E28.74266
G1 X96.416 Y125.76 E28.75431
G1 X96.185 Y125.373 E28.7693
G1 X96.1 Y124.9 E28.78529
G1 X96.1 Y110.002 E29.2808
G1 X96.193 Y109.62 E29.29387
G1 X96.383 Y109.254 E29.30759
G1 X96.64 Y109.016 E29.31924
G0 F9000 X96.845 Y109.36
G1 F1800 X97.172 Y109.165 E29.3319
G1 X97.5 Y109.1 E29.34302
G1 X137.549 Y109.1 E30.67506
G1 X137.838 Y109.17 E30.68495
G1 X138.101 Y109.307 E30.69481
G1 X138.24 Y109.445 E30.70133
G1 X138.435 Y109.772 E30.71399
G1 X138.5 Y110.1 E30.72511
G1 X138.5 Y124.949 E31.21899
G1 X138.43 Y125.238 E31.22888
G1 X138.293 Y125.501 E31.23875
G1 X138.155 Y125.64 E31.24526
G1 X137.828 Y125.835 E31.25792
G1 X137.5 Y125.9 E31.26904
G1 X97.451 Y125.9 E32.60108
G1 X97.162 Y125.83 E32.61097
G1 X96.899 Y125.693 E32.62083
G1 X96.76 Y125.555 E32.62735
G1 X96.565 Y125.228 E32.64001
G1 X96.5 Y124.9 E32.65113
G1 X96.5 Y110.051 E33.14501
G1 X96.57 Y109.762 E33.1549
G1 X96.707 Y109.499 E33.16477
G1 X96.845 Y109.36 E33.17128
G0 F9000 X97.339 Y109.981
G1 F1800 X97.5 Y109.9 E33.17727
G1 X137.5 Y109.9 E34.50768
G1 X137.619 Y109.939 E34.51184
G1 X137.7 Y110.1 E34.51784
G1 X137.7 Y124.9 E35.01009
G1 X137.661 Y125.019 E35.01425
G1 X137.5 Y125.1 E35.02025
G1 X97.5 Y125.1 E36.35065
G1 X97.381 Y125.061 E36.35482
G1 X97.3 Y124.9 E36.36081
G1 X97.3 Y110.1 E36.85306
G1 X97.339 Y109.981 E36.85723
G0 F9000 X96.959 Y109.856
G1 F1800 X97.05 Y109.704 E36.86312
G1 X97.32 Y109.543 E36.87358
G1 X97.5 Y109.5 E36.87973
G1 X137.5 Y109.5 E38.21014
G1 X137.744 Y109.559 E38.21849
G1 X137.896 Y109.65 E38.22438
G1 X138.057 Y109.92 E38.23483
G1 X138.1 Y110.1 E38.24099
G1 X138.1 Y124.9 E38.73324
G1 X138.041 Y125.144 E38.74159
G1 X137.95 Y125.296 E38.74748
G1 X137.68 Y125.457 E38.75794
G1 X137.5 Y125.5 E38.76409
G1 X97.5 Y125.5 E40.0945
G1 X97.256 Y125.441 E40.10285
G1 X97.104 Y125.35 E40.10874
G1 X96.943 Y125.08 E40.11919
G1 X96.9 Y124.9 E40.12535
G1 X96.9 Y110.1 E40.6176
G1 X96.959 Y109.856 E40.62595
G1 F2700 E35.62595
;MESH:shelly-blu-ht-case_screw_v2.stl
G0 F9000 X98.3 Y110.9
G0 X117.5 Y124.3
;TYPE:WALL-INNER
G1 F2700 E40.62595
G1 F1500 X136.9 Y124.3 E41.2712
G1 X136.9 Y110.7 E41.72353
G1 X98.1 Y110.7 E43.01403
G1 X98.1 Y124.3 E43.46636
G1 X117.5 Y124.3 E44.11161
G0 F9000 X117.5 Y124.7
;TYPE:WALL-OUTER
G1 F1500 X137.3 Y124.7 E44.77016
G1 X137.3 Y110.3 E45.24911
G1 X97.7 Y110.3 E46.56621
G1 X97.7 Y124.7 E47.04516
G1 X117.5 Y124.7 E47.70371
G0 F9000 X117.5 Y123.94
;TYPE:SKIN
G1 F1500 X98.46 Y123.94 E48.33698
G1 X98.46 Y111.06 E48.76537
G1 X136.54 Y111.06 E50.03192
G1 X136.54 Y123.94 E50.46031
G1 X117.5 Y123.94 E51.09358
G0 F9000 X117.5 Y124.2
G0 X98.849 Y124.2
G0 X98.849 Y123.739
G1 F1500 X98.66 Y123.55 E51.10247
G0 F9000 X98.66 Y122.984
G1 F1500 X99.415 Y123.739 E51.13798
G0 F9000 X99.981 Y123.739
G1 F1500 X98.66 Y122.419 E51.20009
G0 F9000 X98.66 Y121.853
G1 F1500 X100.546 Y123.739 E51.28881
G0 F9000 X101.112 Y123.739
G1 F1500 X98.66 Y121.287 E51.40414
G0 F9000 X98.66 Y120.722
G1 F1500 X101.678 Y123.739 E51.54607
G0 F9000 X102.243 Y123.739
G1 F1500 X98.66 Y120.156 E51.71461
G0 F9000 X98.66 Y119.59
G1 F1500 X102.809 Y123.739 E51.90976
G0 F9000 X103.375 Y123.739
G1 F1500 X98.66 Y119.024 E52.13154
G0 F9000 X98.66 Y118.459
G1 F1500 X103.94 Y123.739 E52.3799
G0 F9000 X104.506 Y123.739
G1 F1500 X98.66 Y117.893 E52.65488
G0 F9000 X98.66 Y117.327
G1 F1500 X105.072 Y123.739 E52.95648
G0 F9000 X105.638 Y123.739
G1 F1500 X98.66 Y116.762 E53.28468
G0 F9000 X98.66 Y116.196
G1 F1500 X106.203 Y123.739 E53.63948
G0 F9000 X106.769 Y123.739
G1 F1500 X98.66 Y115.63 E54.0209
G0 F9000 X98.66 Y115.065
G1 F1500 X107.335 Y123.739 E54.42892
G0 F9000 X107.9 Y123.739
G1 F1500 X98.66 Y114.499 E54.86354
G0 F9000 X98.66 Y113.933
G1 F1500 X108.466 Y123.739 E55.32479
G0 F9000 X109.032 Y123.739
G1 F1500 X98.66 Y113.368 E55.81263
G0 F9000 X98.66 Y112.802
G1 F1500 X109.597 Y123.739 E56.32707
G0 F9000 X110.163 Y123.739
G1 F1500 X98.66 Y112.236 E56.86814
G0 F9000 X98.66 Y111.671
G1 F1500 X110.729 Y123.739 E57.4358
G0 F9000 X111.294 Y123.739
G1 F1500 X98.815 Y111.26 E58.02278
G0 F9000 X99.381 Y111.26
G1 F1500 X111.86 Y123.739 E58.60975
G0 F9000 X112.426 Y123.739
G1 F1500 X99.947 Y111.26 E59.19673
G0 F9000 X100.512 Y111.26
G1 F1500 X112.991 Y123.739 E59.7837
G0 F9000 X113.557 Y123.739
G1 F1500 X101.078 Y111.26 E60.37067
G0 F9000 X101.644 Y111.26
G1 F1500 X114.123 Y123.739 E60.95765
G0 F9000 X114.688 Y123.739
G1 F1500 X102.209 Y111.26 E61.54462
G0 F9000 X102.775 Y111.26
G1 F1500 X115.254 Y123.739 E62.1316
G0 F9000 X115.82 Y123.739
G1 F1500 X103.341 Y111.26 E62.71857
G0 F9000 X103.907 Y111.26
G1 F1500 X116.386 Y123.739 E63.30554
G0 F9000 X116.951 Y123.739
G1 F1500 X104.472 Y111.26 E63.89252
G0 F9000 X105.038 Y111.26
G1 F1500 X117.517 Y123.739 E64.47949
G0 F9000 X118.083 Y123.739
G1 F1500 X105.604 Y111.26 E65.06646
G0 F9000 X106.169 Y111.26
G1 F1500 X118.648 Y123.739 E65.65344
G0 F9000 X119.214 Y123.739
G1 F1500 X106.735 Y111.26 E66.24041
G0 F9000 X107.301 Y111.26
G1 F1500 X119.78 Y123.739 E66.82739
G0 F9000 X120.345 Y123.739
G1 F1500 X107.866 Y111.26 E67.41436
G0 F9000 X108.432 Y111.26
G1 F1500 X120.911 Y123.739 E68.00133
G0 F9000 X121.477 Y123.739
G1 F1500 X108.998 Y111.26 E68.58831
G0 F9000 X109.563 Y111.26
G1 F1500 X122.042 Y123.739 E69.17528
G0 F9000 X122.608 Y123.739
G1 F1500 X110.129 Y111.26 E69.76226
G0 F9000 X110.695 Y111.26
G1 F1500 X123.174 Y123.739 E70.34923
G0 F9000 X123.739 Y123.739
G1 F1500 X111.26 Y111.26 E70.9362
G0 F9000 X111.826 Y111.26
G1 F1500 X124.305 Y123.739 E71.52318
G0 F9000 X124.871 Y123.739
G1 F1500 X112.392 Y111.26 E72.11015
G0 F9000 X112.957 Y111.26
G1 F1500 X125.437 Y123.739 E72.69715
G0 F9000 X126.002 Y123.739
G1 F1500 X113.523 Y111.26 E73.28412
G0 F9000 X114.089 Y111.26
G1 F1500 X126.568 Y123.739 E73.8711
G0 F9000 X127.134 Y123.739
G1 F1500 X114.655 Y111.26 E74.45807
G0 F9000 X115.22 Y111.26
G1 F1500 X127.699 Y123.739 E75.04504
G0 F9000 X128.265 Y123.739
G1 F1500 X115.786 Y111.26 E75.63202
G0 F9000 X116.352 Y111.26
G1 F1500 X128.831 Y123.739 E76.21899
G0 F9000 X129.396 Y123.739
G1 F1500 X116.917 Y111.26 E76.80597
G0 F9000 X117.483 Y111.26
G1 F1500 X129.962 Y123.739 E77.39294
G0 F9000 X130.528 Y123.739
G1 F1500 X118.049 Y111.26 E77.97991
G0 F9000 X118.614 Y111.26
G1 F1500 X131.093 Y123.739 E78.56689
G0 F9000 X131.659 Y123.739
G1 F1500 X119.18 Y111.26 E79.15386
G0 F9000 X119.746 Y111.26
G1 F1500 X132.225 Y123.739 E79.74084
G0 F9000 X132.79 Y123.739
G1 F1500 X120.311 Y111.26 E80.32781
G0 F9000 X120.877 Y111.26
G1 F1500 X133.356 Y123.739 E80.91478
G0 F9000 X133.922 Y123.739
G1 F1500 X121.443 Y111.26 E81.50176
G0 F9000 X122.008 Y111.26
G1 F1500 X134.487 Y123.739 E82.08873
G0 F9000 X135.053 Y123.739
G1 F1500 X122.574 Y111.26 E82.67571
G0 F9000 X123.14 Y111.26
G1 F1500 X135.619 Y123.739 E83.26268
G0 F9000 X136.185 Y123.739
G1 F1500 X123.706 Y111.26 E83.84965
G0 F9000 X124.271 Y111.26
G1 F1500 X136.34 Y123.329 E84.41734
G0 F9000 X136.34 Y122.764
G1 F1500 X124.837 Y111.26 E84.95843
G0 F9000 X125.403 Y111.26
G1 F1500 X136.34 Y122.198 E85.4729
G0 F9000 X136.34 Y121.632
G1 F1500 X125.968 Y111.26 E85.96076
G0 F9000 X126.534 Y111.26
G1 F1500 X136.34 Y121.067 E86.42203
G0 F9000 X136.34 Y120.501
G1 F1500 X127.1 Y111.26 E86.85668
G0 F9000 X127.665 Y111.26
G1 F1500 X136.34 Y119.935 E87.26472
G0 F9000 X136.34 Y119.37
G1 F1500 X128.231 Y111.26 E87.64617
G0 F9000 X128.797 Y111.26
G1 F1500 X136.34 Y118.804 E88.00099
G0 F9000 X136.34 Y118.238
G1 F1500 X129.362 Y111.26 E88.32922
G0 F9000 X129.928 Y111.26
G1 F1500 X136.34 Y117.672 E88.63082
G0 F9000 X136.34 Y117.107
G1 F1500 X130.494 Y111.26 E88.90582
G0 F9000 X131.059 Y111.26
G1 F1500 X136.34 Y116.541 E89.15422
G0 F9000 X136.34 Y115.975
G1 F1500 X131.625 Y111.26 E89.376
G0 F9000 X132.191 Y111.26
G1 F1500 X136.34 Y115.41 E89.57118
G0 F9000 X136.34 Y114.844
G1 F1500 X132.756 Y111.26 E89.73976
G0 F9000 X133.322 Y111.26
G1 F1500 X136.34 Y114.278 E89.88172
G0 F9000 X136.34 Y113.713
G1 F1500 X133.888 Y111.26 E89.99707
G0 F9000 X134.454 Y111.26
G1 F1500 X136.34 Y113.147 E90.08581
G0 F9000 X136.34 Y112.581
G1 F1500 X135.019 Y111.26 E90.14795
G0 F9000 X135.585 Y111.26
G1 F1500 X136.34 Y112.016 E90.18348
G0 F9000 X136.34 Y111.45
G1 F1500 X136.151 Y111.26 E90.1924
G1 F2700 E85.1924
;MESH:NONMESH
G0 F300 X136.151 Y111.26 Z0.4
G0 F9000 X136.151 Y110.8
G0 X136.728 Y110.872
G0 X136.728 Y124.128
G0 X117.5 Y124.3
;TIME_ELAPSED:115.428590
;LAYER:1
M106 S85
;TYPE:WALL-INNER
;MESH:shelly-blu-ht-case_screw_v2.stl
G1 F2700 E90.1924
G1 F1500 X136.9 Y124.3 E90.83764
G1 X136.9 Y110.7 E91.28998
G1 X98.1 Y110.7 E92.58047
G1 X98.1 Y124.3 E93.03281
G1 X117.5 Y124.3 E93.67806
G0 F9000 X117.5 Y124.7
;TYPE:WALL-OUTER
G1 F1500 X137.3 Y124.7 E94.33661
G1 X137.3 Y110.3 E94.81555
G1 X97.7 Y110.3 E96.13266
G1 X97.7 Y124.7 E96.6116
G1 X117.5 Y124.7 E97.27015
G0 F9000 X117.5 Y123.94
;TYPE:SKIN
G1 F1500 X98.46 Y123.94 E97.90343
G1 X98.46 Y111.06 E98.33182
G1 X136.54 Y111.06 E99.59836
G1 X136.54 Y123.94 E100.02675
G1 X117.5 Y123.94 E100.66003
G0 F9000 X117.5 Y124.2
G0 X136.728 Y124.128
G0 X136.8 Y123.31
G0 X136.34 Y123.31
G1 F1500 X135.909 Y123.74 E100.68027
G0 F9000 X135.344 Y123.74
G1 F1500 X136.34 Y122.744 E100.72712
G0 F9000 X136.34 Y122.178
G1 F1500 X134.778 Y123.74 E100.8006
G0 F9000 X134.212 Y123.74
G1 F1500 X136.34 Y121.612 E100.90069
G0 F9000 X136.34 Y121.047
G1 F1500 X133.647 Y123.74 E101.02736
G0 F9000 X133.081 Y123.74
G1 F1500 X136.34 Y120.481 E101.18065
G0 F9000 X136.34 Y119.915
G1 F1500 X132.515 Y123.74 E101.36057
G0 F9000 X131.95 Y123.74
G1 F1500 X136.34 Y119.35 E101.56706
G0 F9000 X136.34 Y118.784
G1 F1500 X131.384 Y123.74 E101.80018
G0 F9000 X130.818 Y123.74
G1 F1500 X136.34 Y118.218 E102.05992
G0 F9000 X136.34 Y117.653
G1 F1500 X130.253 Y123.74 E102.34623
G0 F9000 X129.687 Y123.74
G1 F1500 X136.34 Y117.087 E102.65917
G0 F9000 X136.34 Y116.521
G1 F1500 X129.121 Y123.74 E102.99873
G0 F9000 X128.556 Y123.74
G1 F1500 X136.34 Y115.956 E103.36486
G0 F9000 X136.34 Y115.39
G1 F1500 X127.99 Y123.74 E103.75762
G0 F9000 X127.424 Y123.74
G1 F1500 X136.34 Y114.824 E104.177
G0 F9000 X136.34 Y114.259
G1 F1500 X126.858 Y123.74 E104.62298
G0 F9000 X126.293 Y123.74
G1 F1500 X136.34 Y113.693 E105.09556
G0 F9000 X136.34 Y113.127
G1 F1500 X125.727 Y123.74 E105.59476
G0 F9000 X125.161 Y123.74
G1 F1500 X136.34 Y112.562 E106.12057
